!!!COM: Music21
!!!OTL: hornpipe_Sean-Redmonds
!!!OMV: hornpipe_Sean-Redmonds
**kern
*clefG2
*k[f#c#g#]
*A:
*M4/4
=1
4.cc#
8b
=||
8aL
8AJ
8c#L
8eJ
8aL
8cc#J
8eeL
8cc#J
=
8ddL
8eeJ
8ff#L
8gg#J
8aaL
8gg#J
8aaL
8ff#J
=
8eeL
8aJ
8cc#L
8eeJ
8ff#L
8eeJ
8ddL
8cc#J
=
8bL
8eJ
8g#L
8bJ
8eeL
8ddJ
8cc#L
8bJ
!!linebreak:original
=
8aL
8AJ
8c#L
8eJ
8aL
8cc#J
8eeL
8cc#J
=
8ddL
8eeJ
8ff#L
8gg#J
8aaL
8gg#J
8aaL
8ff#J
=
8eeL
8aaJ
8gg#L
8ff#J
8eeL
8ddJ
8cc#L
8bJ
=
4a
8g#L
8bJ
4a
8cc#L
8aJ
=||
8aL
8AJ
8c#L
8eJ
8aL
8cc#J
8eeL
8cc#J
!!linebreak:original
=
8ddL
8eeJ
8ff#L
8gg#J
8aaL
8gg#J
8aaL
8ff#J
=
8eeL
8aJ
8cc#L
8eeJ
8ff#L
8eeJ
8ddL
8cc#J
=
8bL
8eJ
8g#L
8bJ
8eeL
8ddJ
8cc#L
8bJ
=
8aL
8AJ
8c#L
8eJ
8aL
8cc#J
8eeL
8cc#J
=
8ddL
8eeJ
8ff#L
8gg#J
8aaL
8gg#J
8aaL
8ff#J
!!linebreak:original
=
8eeL
8aaJ
8gg#L
8ff#J
8eeL
8ddJ
8cc#L
8bJ
=
4a
8g#L
8bJ
4a
12bL
12cc#
12ddJ
=||
8eeL
8aJ
8cc#L
8eeJ
8ff#L
8aJ
8ddL
8ff#J
=
8eeL
8aJ
8cc#L
8eeJ
4aa
8gg#L
8ff#J
=
8eeL
8aJ
8cc#L
8eeJ
8ff#L
8eeJ
8ddL
8cc#J
!!linebreak:original
=
8bL
8eJ
8g#L
8bJ
8eeL
8ddJ
8cc#L
8ddJ
=
4ee
8cc#L
8eeJ
4ff#
8dd#XL
8ff#J
=
4ee
8cc#L
8eeJ
4aa
8gg#L
8ff#J
=
8eeL
8aaJ
8gg#L
8ff#J
8eeL
8ddJ
8cc#L
8bJ
=
4a
8g#L
8bJ
4a
12bL
12cc#
12ddJ
!!linebreak:original
=||
8eeL
8aJ
8cc#L
8eeJ
8ff#L
8aJ
8ddL
8ff#J
=
8eeL
8aJ
8cc#L
8eeJ
4aa
8gg#L
8ff#J
=
8eeL
8aJ
8cc#L
8eeJ
8ff#L
8eeJ
8ddL
8cc#J
=
8bL
8eJ
8g#L
8bJ
8eeL
8ddJ
8cc#L
8ddJ
=
4ee
8cc#L
8eeJ
4ff#
8dd#XL
8ff#J
!!linebreak:original
=
4ee
8cc#L
8eeJ
4aa
8gg#L
8ff#J
=
8eeL
8aaJ
8gg#L
8ff#J
8eeL
8ddJ
8cc#L
8bJ
=
4a
8g#L
8bJ
4a
8cc#L
8cc#J
=||
*-
